src/main/resources/icons/components/links_dark.svg

<svg xmlns="http://www.w3.org/2000/svg" width="16" height="16" viewBox="0 0 16 16">
    <path fill="#CED0D6"
          d="M6.89423077 9.60302198L4.57005495 9.60302198 4.08379121 11 3 11 5.26648352 5 6.20192308 5 8.47252747 11 7.38461538 11 6.89423077 9.60302198zM4.86263736 8.76236264L6.60164835 8.76236264 5.73214286 6.27335165 4.86263736 8.76236264zM12.7839159 8.90696783C12.7839159 9.57612683 12.6345523 10.1085251 12.3358206 10.5041787 12.0370889 10.8998322 11.626173 11.097656 11.1030606 11.097656 10.598536 11.097656 10.2055437 10.9157643 9.9240721 10.5519755L9.87627527 11.0179946 9 11.0179946 9 4.9 9.96788587 4.9 9.96788587 7.12255273C10.2467021 6.79328401 10.6224346 6.62865212 11.0950945 6.62865212 11.6208623 6.62865212 12.0337697 6.82382057 12.3338291 7.21416333 12.6338885 7.60450608 12.7839159 8.15018113 12.7839159 8.85120485L12.7839159 8.90696783zM11.8188657 8.82265434C11.8188657 8.35530519 11.7365497 8.00479859 11.5719154 7.77112401 11.407281 7.53744944 11.1682992 7.4206139 10.8549629 7.4206139 10.4354108 7.4206139 10.1406666 7.60383327 9.97072147 7.97027748L9.97072147 9.74672644C10.143322 10.1211368 10.4407215 10.3083392 10.862929 10.3083392 11.1656438 10.3083392 11.3993149 10.1954867 11.5639492 9.96977833 11.7285836 9.74406993 11.8135549 9.40285706 11.8188657 8.94612949L11.8188657 8.82265434z"/>
    <line stroke="#CED0D6" stroke-width="1" x1="3" y1="12" x2="13" y2="12"/>
</svg>

<svg xmlns="http://www.w3.org/2000/svg" width="16" height="16"><path fill="#CED0D6" d="M6.894 9.603H4.57L4.084 11H3l2.266-6h.936l2.27 6H7.386zm-2.031-.84h1.739l-.87-2.49zm7.92.144q0 1.005-.447 1.597-.448.594-1.233.594-.756 0-1.179-.546l-.048.466H9V4.9h.968v2.223q.418-.494 1.127-.494.789 0 1.239.585t.45 1.637zm-.964-.084q0-.701-.247-1.052-.248-.35-.717-.35-.63 0-.884.55v1.776q.259.561.892.561.454 0 .7-.338.248-.339.256-1.024z"/><path stroke="#CED0D6" d="M3 12h10"/></svg>
